public/assets/images/banner/star.svg

<svg width="26" height="40" viewBox="0 0 26 40" fill="none" xmlns="http://www.w3.org/2000/svg">
<path d="M25.9514 20.0601C14.5925 21.1149 13.7293 22.2899 13.0634 39.9526C13.0601 39.9661 13.0522 39.9781 13.041 39.9867C13.0298 39.9953 13.016 40 13.0018 40C12.9875 40 12.9737 39.9953 12.9625 39.9867C12.9513 39.9781 12.9434 39.9661 12.9401 39.9526C12.2707 22.2899 11.4075 21.1149 0.0485779 20.0601C0.0347353 20.0569 0.0224125 20.0492 0.0136014 20.0383C0.00479019 20.0274 0 20.0139 0 20C0 19.9861 0.00479019 19.9726 0.0136014 19.9617C0.0224125 19.9508 0.0347353 19.9431 0.0485779 19.9399C11.4075 18.8851 12.2707 17.7101 12.9401 0.0473704C12.9434 0.0338719 12.9513 0.0218607 12.9625 0.0132685C12.9737 0.00467637 12.9875 0 13.0018 0C13.016 0 13.0298 0.00467637 13.041 0.0132685C13.0522 0.0218607 13.0601 0.0338719 13.0634 0.0473704C13.7293 17.7101 14.5925 18.8851 25.9514 19.9399C25.9653 19.9431 25.9776 19.9508 25.9864 19.9617C25.9952 19.9726 26 19.9861 26 20C26 20.0139 25.9952 20.0274 25.9864 20.0383C25.9776 20.0492 25.9653 20.0569 25.9514 20.0601Z" fill="white"/>
</svg>

<svg xmlns="http://www.w3.org/2000/svg" width="26" height="40" fill="none" viewBox="0 0 26 40"><path fill="#fff" d="M25.951 20.06c-11.359 1.055-12.222 2.23-12.888 19.893a.06.06 0 0 1-.022.034.064.064 0 0 1-.079 0 .06.06 0 0 1-.022-.034C12.27 22.29 11.408 21.115.05 20.06a.06.06 0 0 1-.035-.022.06.06 0 0 1 0-.076.06.06 0 0 1 .035-.022C11.408 18.885 12.27 17.71 12.94.047a.06.06 0 0 1 .023-.034.065.065 0 0 1 .078 0q.018.013.022.034c.666 17.663 1.53 18.838 12.888 19.893q.022.004.035.022a.06.06 0 0 1 0 .076.06.06 0 0 1-.035.022"/></svg>
